X: 26
T:M.T.B.
% Nottingham Music Database
S:Lesley Dolman
M:3/4
L:1/4
K:G
D|"G"GBd|"G"g3/2g/2f/2g/2|"C"age|"G"edd|"D"DFA|"D"d3/2d/2^c/2d/2|"D7"edc|
"G"B2B/2A/2|"G"GBd|"G"g3/2g/2f/2g/2|"C"age|"G"edd|"D"DFA|"D"d3/2d/2^c/2d/2|\
"D7"cBA|
"G"G2B/2A/2|"G"GBe|"G"d2d|"G"GBe|"G"d2d|"D"DFA|"D"d3/2d/2^c/2d/2|"D7"edc|
"G"B2B/2A/2|"G"GBe|"G"d2d|"G"GBe|"G"d2d|"D"DFA|"D"d3/2d/2^c/2d/2|"D7"cBA|"G"G2\
||<end>
<start>
